!!!SOCIAL_FUNCTION:	dance songs
!!!PDT:	1957
!!!OTL: No_79_Pleasure_Dance_Song_(b).krn
!!!LING_GROUP: Keresan
!!!LANG: Tone
!!!REG: Southwest
**kern
*staff1
=1-
*clefF4
*k[]
*M2/4
8A\L
8A\J
12A\L
12G#\
12A\J
=2
8E\L
8E\J
8D\L
8D\J
=3
8E\L
8E\J
12E\L
12C\
12E\J
=4
8C/L
8C/J
8AA/
8r
=5
4D\
12D\L
12C#\
12D\J
=6
8C/L
8C/J
8AA/L
8C/J
=7
4AA/
8AA/L
8C/J
=8
8C/L
[8AA/J
8AA/L]
8C/J
=9
2AA/
=10
4AA/
8AA/
8r
=11
4A\
12A\L
12G#\
12A\J
=12
8E\L
8E\J
4D\
=13
4E\
12E\L
12D#\
12E\J
=14
8C/L
8C/J
8AA/
8r
=15
4C/
12C/L
12AA/
12D/J
=16
*M3/4
4C/
8AA/L
[8AA/J
4AA/]
=17
8C/L
8AA/J
[2AA/
=18
*M2/4
4AA/]
8AA/
8r
=19
4E\
12E\L
12D#\
12E\J
=20
8C/L
8C/J
4AA/
=21
4C/
(12C/L
12AA/)
12D/J
=22
8C/L
8C/J
8AA/
8r
=23
8C/L
[8AA/J
4AA/]
=24
8C/L
[8AA/J
4AA/]
=25
16C/LK
8.AA/J
[4AA/
=26
4AA/]
8AA/
8r
=27
4E\
12E\L
12D\
12E\J
=28
8C/L
8C/J
4AA/
=29
8C/L
[8AA/J
4AA/]
=30
*M3/4
8C/L
8AA/J
8AA/L
8AA/J
4AA/
=31
*M2/4
2AA/
=32
8C/L
8C/J
8AA/
8r
==
*-
